Obsidian-SemiLight/actions/22s/nextuntranslated.svg

<svg viewBox="0 0 22 22" xmlns="http://www.w3.org/2000/svg"><path d="m15.707031 4-.707031.7070312 2.292969 2.2929688h-4.292969v1h4.292969l-2.292969 2.292969.707031.707031 3.292969-3.2929688.207031-.2070312-.207031-.2070312zm-10.707031 11v1 1h11v-1-1h-1v1h-9v-1z" fill="#4d4d4d"/></svg>

<svg xmlns="http://www.w3.org/2000/svg" viewBox="0 0 22 22">
  <defs id="defs3051">
    <style type="text/css" id="current-color-scheme">
      .ColorScheme-Text {
        color:#4d4d4d;
      }
      </style>
  </defs>
 <path 
     style="fill:currentColor;fill-opacity:1;stroke:none" 
     d="M 15.707031 4 L 15 4.7070312 L 17.292969 7 L 13 7 L 13 8 L 17.292969 8 L 15 10.292969 L 15.707031 11 L 19 7.7070312 L 19.207031 7.5 L 19 7.2929688 L 15.707031 4 z M 5 15 L 5 16 L 5 17 L 16 17 L 16 16 L 16 15 L 15 15 L 15 16 L 6 16 L 6 15 L 5 15 z "
     class="ColorScheme-Text"
     />
 </svg>
